Obsidian/actions/22s/view-media-equalizer.svg

<svg height="22" viewBox="0 0 22 22" width="22" xmlns="http://www.w3.org/2000/svg"><path d="m10 2v1h-9v2h9v1h2v-4zm3 1v2h2v-2zm-9 3v1h-3v2h3v1h2v-4zm3 1v2h8v-2zm1 3v1h-7v2h7v1h2v-4zm3 1v2h4v-2z" fill="#bebebe" transform="translate(3 3)"/></svg>

<svg xmlns="http://www.w3.org/2000/svg" width="22" height="22" viewBox="0 0 22 22">
 <defs>
  <style id="current-color-scheme" type="text/css">
   .ColorScheme-Text { color:#bebebe; } .ColorScheme-Highlight { color:#4285f4; }
  </style>
 </defs>
 <path style="fill:currentColor" class="ColorScheme-Text" d="M 10 2 L 10 3 L 1 3 L 1 5 L 10 5 L 10 6 L 12 6 L 12 2 L 10 2 z M 13 3 L 13 5 L 15 5 L 15 3 L 13 3 z M 4 6 L 4 7 L 1 7 L 1 9 L 4 9 L 4 10 L 6 10 L 6 6 L 4 6 z M 7 7 L 7 9 L 15 9 L 15 7 L 7 7 z M 8 10 L 8 11 L 1 11 L 1 13 L 8 13 L 8 14 L 10 14 L 10 10 L 8 10 z M 11 11 L 11 13 L 15 13 L 15 11 L 11 11 z" transform="translate(3 3)"/>
</svg>
